X:8108
T:John Fenwick (is the floor amang them all)
R:Other
O:England
M:3/4
A:Northumbria
K:G
G2GA Bc|d3e {e}g2|d3e {e}g2|{eg}ed cB AG|\
A2 AB cd|e4 {e}g2|e4 {e}g2|{eg}e4 d2|
G2 GA Bc|d3e {e}g2|d3e {e}g2|{eg}ed cB AG|\
c2 dc BA|B2 cB AG|A3B d2|e4 d2::
g2 G2 Bd|g2 G2 Bd|g2 G2 g2|ed cB AG|\
a2 A2 e2|a2 A2 e2|a2 A2 a2|{ef}e4 (3def|
g2 G2 Bd|g2 G2 Bd|g2 G2 g2|ed cB AG|\
c2 dc BA|B2 cB AG|A3B d2|e4 d2:|
